icon-themes/sifr_svg/xmlsecurity/res/notcertificate_40x56.svg

<svg viewBox="0 0 56 40" xmlns="http://www.w3.org/2000/svg"><path d="m6 4c-1.108 0-2 .892-2 2v13h2v-13h44v28h-1v2h1c1.108 0 2-.892 2-2v-28c0-1.108-.892-2-2-2zm31.5 14c-.548769 0-1.042586.282255-1.34375.580078-.301165.297824-.482453.608142-.642578.878906-.32025.541529-.586663.846628-.59375.84961-.0068.0028-.408647-.02102-1.011719-.173828-.301536-.0764-.644329-.165889-1.064453-.160157-.420124.0057-.965599.160624-1.353516.554688-.38791.394057-.54124.948245-.546875 1.375-.0056.426754.08299.775741.158203 1.082031.150426.61258.174701 1.020414.171876 1.027344-.002901.0071-.304757.278182-.837891.603516-.266567.162666-.572043.346395-.865235.652343-.293189.305948-.570312.807796-.570312 1.365235s.277109 1.059299.570312 1.365234.598678.489697.865235.652344c.533113.325293.834954.596311.837891.603515.0027.0067-.021439.414733-.171876 1.027344-.075209.306306-.163837.655272-.158203 1.082031.0056.42676.158949.980926.546875 1.375.387943.394037.933411.548978 1.353516.554688.420105.0057.76293-.08376 1.064453-.160156.603045-.152798 1.004934-.176682 1.011719-.173828.007.002899.273505.310027.59375.851562.160123.270767.341417.581073.642578.878906.30116.297833.794964.578125 1.34375.578125s1.042589-.280292 1.34375-.578125c.30116-.297833.482456-.608139.642578-.878906.148546-.251192.170331-.253127.275391-.396484l4.513672 4.583984 1.472656-2.988281c1.179684-.416527 2.25391-.758571 2.251953-1.833985.0017-.515119-.268315-.6998-.554688-.955078-.204661-.15723-1.638842-1.435046-1.960937-1.677734-.529726-.399131-1.156886-.869703-1.730469-1.306641.02028-.02228.295421-.270421.8125-.585937.266554-.162648.572038-.346406.865235-.652344.293201-.305935.570312-.807809.570312-1.365234 0-.557439-.277122-1.059287-.570312-1.365235-.293192-.305948-.598668-.489677-.865235-.652343-.533135-.325335-.835005-.596444-.83789-.603516-.0028-.0069.02144-.414763.171875-1.027344.07522-.306291.163838-.655277.158203-1.082031-.0056-.426755-.158966-.980943-.546875-1.375-.387918-.394064-.933391-.548957-1.353516-.554688-.420124-.0057-.762918.08375-1.064453.160157-.603072.152804-1.004947.176678-1.011719.173828-.0071-.003-.275453-.308081-.595703-.84961-.160125-.270764-.341414-.581082-.642578-.878906-.301165-.297823-.794981-.580078-1.34375-.580078zm-28.5 2c-2.333332 1.161206-4.666668 1.634778-7 2.076172v8.654297c0 2.423168 3.78122 5.733689 7 7.269531 3.218782-1.535842 7-4.846363 7-7.269531v-8.654297c-2.333332-.441394-4.666668-.914966-7-2.076172zm28.5.111328c.06574.07864.153999.193915.271484.392578.280248.473885.593016 1.283878 1.542969 1.683594.949672.399544 1.73599.051669 2.263672-.082031.221879-.05622.363944-.075735.464844-.083985-.0081.102496-.026681.247272-.082031.472657-.131625.536018-.473417 1.332209-.080079 2.296875.393534.96493 1.189759 1.283693 1.65625 1.568359.195953.119576.309448.20864.386719.275391-.0774.06676-.191154.156058-.386719.27539-.466496.284651-1.262713.60343-1.65625 1.56836-.235654.578174-.153348 1.091076-.08789 1.464843.0701.260783.207815.474648.380859.63086.636048.519863 2.329536 2.023619 2.941406 2.484375l-.859375.4375-.529297 1.072265-3.230468-3.28125.052734.058594c-.295104-.350431-.880831-.395925-1.117187-.318359-.118413.03886-.154755.09474-.220703.138672-.841834.417004-1.173443 1.149787-1.439454 1.599609-.117487.198671-.205741.313933-.271484.392578-.06575-.07864-.153997-.193907-.271484-.392578-.280252-.473906-.592931-1.281989-1.542969-1.681641-.949661-.39964-1.734011-.053631-2.261719.080078-.221891.05622-.363928.075725-.464844.083985.0081-.102518.026682-.247263.082032-.472656.131627-.536035.473506-1.332197.080078-2.296875-.393477-.965002-1.189738-1.283705-1.65625-1.56836-.195572-.119334-.309312-.208621-.386719-.27539.07727-.06675.190766-.155815.386719-.275391.466492-.284666 1.262716-.603431 1.65625-1.568359.393347-.964666.051552-1.760857-.080078-2.296875-.05535-.225385-.073902-.370161-.082032-.472657.100901.0083.242965.027775.464844.083985.527682.133702 1.312047.481578 2.261719.082031.949953-.399715 1.262721-1.209709 1.542969-1.683594.117489-.198656.205745-.313941.271484-.392578zm-29.5 1.888672h2v10h-2zm0 12h2v2h-2zm9 0v2h12v-2z" fill="#555753"/></svg>

<svg xmlns="http://www.w3.org/2000/svg" viewBox="0 0 56 40">
  <path
     style="fill:#555753"
     d="M 6 4 C 4.892 4 4 4.892 4 6 L 4 19 L 6 19 L 6 6 L 50 6 L 50 34 L 49 34 L 49 36 L 50 36 C 51.108 36 52 35.108 52 34 L 52 6 C 52 4.892 51.108 4 50 4 L 6 4 z M 37.5 18 C 36.951231 18 36.457414 18.282255 36.15625 18.580078 C 35.855085 18.877902 35.673797 19.18822 35.513672 19.458984 C 35.193422 20.000513 34.927009 20.305612 34.919922 20.308594 C 34.913122 20.311394 34.511275 20.287574 33.908203 20.134766 C 33.606667 20.058366 33.263874 19.968877 32.84375 19.974609 C 32.423626 19.980309 31.878151 20.135233 31.490234 20.529297 C 31.102324 20.923354 30.948994 21.477542 30.943359 21.904297 C 30.937759 22.331051 31.026349 22.680038 31.101562 22.986328 C 31.251988 23.598908 31.276263 24.006742 31.273438 24.013672 C 31.270537 24.020772 30.968681 24.291854 30.435547 24.617188 C 30.16898 24.779854 29.863504 24.963583 29.570312 25.269531 C 29.277123 25.575479 29 26.077327 29 26.634766 C 29 27.192205 29.277109 27.694065 29.570312 28 C 29.863515 28.305935 30.16899 28.489697 30.435547 28.652344 C 30.96866 28.977637 31.270501 29.248655 31.273438 29.255859 C 31.276138 29.262559 31.251999 29.670592 31.101562 30.283203 C 31.026353 30.589509 30.937725 30.938475 30.943359 31.365234 C 30.948959 31.791994 31.102308 32.34616 31.490234 32.740234 C 31.878177 33.134271 32.423645 33.289212 32.84375 33.294922 C 33.263855 33.300622 33.60668 33.211162 33.908203 33.134766 C 34.511248 32.981968 34.913137 32.958084 34.919922 32.960938 C 34.926922 32.963837 35.193427 33.270965 35.513672 33.8125 C 35.673795 34.083267 35.855089 34.393573 36.15625 34.691406 C 36.45741 34.989239 36.951214 35.269531 37.5 35.269531 C 38.048786 35.269531 38.542589 34.989239 38.84375 34.691406 C 39.14491 34.393573 39.326206 34.083267 39.486328 33.8125 C 39.634874 33.561308 39.656659 33.559373 39.761719 33.416016 L 44.275391 38 L 45.748047 35.011719 C 46.927731 34.595192 48.001957 34.253148 48 33.177734 C 48.0017 32.662615 47.731685 32.477934 47.445312 32.222656 C 47.240651 32.065426 45.80647 30.78761 45.484375 30.544922 C 44.954649 30.145791 44.327489 29.675219 43.753906 29.238281 C 43.774186 29.216001 44.049327 28.96786 44.566406 28.652344 C 44.83296 28.489696 45.138444 28.305938 45.431641 28 C 45.724842 27.694065 46.001953 27.192191 46.001953 26.634766 C 46.001953 26.077327 45.724831 25.575479 45.431641 25.269531 C 45.138449 24.963583 44.832973 24.779854 44.566406 24.617188 C 44.033271 24.291853 43.731401 24.020744 43.728516 24.013672 C 43.725716 24.006772 43.749956 23.598909 43.900391 22.986328 C 43.975611 22.680037 44.064229 22.331051 44.058594 21.904297 C 44.052994 21.477542 43.899628 20.923354 43.511719 20.529297 C 43.123801 20.135233 42.578328 19.98034 42.158203 19.974609 C 41.738079 19.968909 41.395285 20.058359 41.09375 20.134766 C 40.490678 20.28757 40.088803 20.311444 40.082031 20.308594 C 40.074931 20.305594 39.806578 20.000513 39.486328 19.458984 C 39.326203 19.18822 39.144914 18.877902 38.84375 18.580078 C 38.542585 18.282255 38.048769 18 37.5 18 z M 9 20 C 6.666668 21.161206 4.333332 21.634778 2 22.076172 L 2 30.730469 C 2 33.153637 5.78122 36.464158 9 38 C 12.218782 36.464158 16 33.153637 16 30.730469 L 16 22.076172 C 13.666668 21.634778 11.333332 21.161206 9 20 z M 37.5 20.111328 C 37.56574 20.189968 37.653999 20.305243 37.771484 20.503906 C 38.051732 20.977791 38.3645 21.787784 39.314453 22.1875 C 40.264125 22.587044 41.050443 22.239169 41.578125 22.105469 C 41.800004 22.049249 41.942069 22.029734 42.042969 22.021484 C 42.034869 22.12398 42.016288 22.268756 41.960938 22.494141 C 41.829313 23.030159 41.487521 23.82635 41.880859 24.791016 C 42.274393 25.755946 43.070618 26.074709 43.537109 26.359375 C 43.733062 26.478951 43.846557 26.568015 43.923828 26.634766 C 43.846428 26.701526 43.732674 26.790824 43.537109 26.910156 C 43.070613 27.194807 42.274396 27.513586 41.880859 28.478516 C 41.645205 29.05669 41.727511 29.569592 41.792969 29.943359 C 41.863069 30.204142 42.000784 30.418007 42.173828 30.574219 C 42.809876 31.094082 44.503364 32.597838 45.115234 33.058594 L 44.255859 33.496094 L 43.726562 34.568359 L 40.496094 31.287109 L 40.548828 31.345703 C 40.253724 30.995272 39.667997 30.949778 39.431641 31.027344 C 39.313228 31.066204 39.276886 31.122084 39.210938 31.166016 C 38.369104 31.58302 38.037495 32.315803 37.771484 32.765625 C 37.653997 32.964296 37.565743 33.079558 37.5 33.158203 C 37.43425 33.079563 37.346003 32.964296 37.228516 32.765625 C 36.948264 32.291719 36.635585 31.483636 35.685547 31.083984 C 34.735886 30.684344 33.951536 31.030353 33.423828 31.164062 C 33.201937 31.220282 33.0599 31.239787 32.958984 31.248047 C 32.967084 31.145529 32.985666 31.000784 33.041016 30.775391 C 33.172643 30.239356 33.514522 29.443194 33.121094 28.478516 C 32.727617 27.513514 31.931356 27.194811 31.464844 26.910156 C 31.269272 26.790822 31.155532 26.701535 31.078125 26.634766 C 31.155395 26.568016 31.268891 26.478951 31.464844 26.359375 C 31.931336 26.074709 32.72756 25.755944 33.121094 24.791016 C 33.514441 23.82635 33.172646 23.030159 33.041016 22.494141 C 32.985666 22.268756 32.967114 22.12398 32.958984 22.021484 C 33.059885 22.029784 33.201949 22.049259 33.423828 22.105469 C 33.95151 22.239171 34.735875 22.587047 35.685547 22.1875 C 36.6355 21.787785 36.948268 20.977791 37.228516 20.503906 C 37.346005 20.30525 37.434261 20.189965 37.5 20.111328 z M 8 22 L 10 22 L 10 32 L 8 32 L 8 22 z M 8 34 L 10 34 L 10 36 L 8 36 L 8 34 z M 17 34 L 17 36 L 29 36 L 29 34 L 17 34 z "
     />
</svg>
